src/assets/icons/sword.svg

<?xml version="1.0" encoding="iso-8859-1"?>
<!-- Uploaded to: SVG Repo, www.svgrepo.com, Generator: SVG Repo Mixer Tools -->
<!DOCTYPE svg PUBLIC "-//W3C//DTD SVG 1.1//EN" "http://www.w3.org/Graphics/SVG/1.1/DTD/svg11.dtd">
<svg fill="#000000" height="800px" width="800px" version="1.1" id="Capa_1" xmlns="http://www.w3.org/2000/svg" xmlns:xlink="http://www.w3.org/1999/xlink" 
	 viewBox="0 0 290.226 290.226" xml:space="preserve">
<g>
	<path d="M63.951,243.575c-1.945-3.578-4.401-6.907-7.363-9.869c-3.106-3.102-6.626-5.633-10.4-7.63
		c-4.51-2.387-0.945-7.5-0.945-7.5c4.616-7.023,8.825-14.079,12.305-20.226l-23.363-23.344H11.504c-4.362,0-7.898-3.539-7.898-7.902
		c0-4.361,3.536-7.9,7.898-7.9h25.947c2.1,0,4.107,0.832,5.588,2.312l85.379,85.291c1.483,1.483,2.315,3.495,2.315,5.589v26.073
		c0,4.365-3.537,7.897-7.9,7.897c-4.367,0-7.904-3.531-7.904-7.897v-22.798l-23.27-23.24c-6.281,3.707-13.582,8.252-20.816,13.25
		C70.842,245.679,66.698,248.629,63.951,243.575z"/>
	<path d="M26.61,237.102c-7.106,0-13.784,2.764-18.812,7.784c-5.019,5.015-7.782,11.686-7.782,18.778
		c0,7.097,2.764,13.762,7.782,18.776c5.027,5.016,11.706,7.783,18.812,7.785c7.102,0,13.781-2.77,18.804-7.785
		c5.023-5.015,7.79-11.682,7.79-18.776c0-7.093-2.768-13.764-7.79-18.778C40.392,239.866,33.712,237.102,26.61,237.102z"/>
	<path d="M100.985,182.318c-3.502,3.499-9.232,3.499-12.734,0.001l-8.81-8.801c-3.502-3.498-3.502-9.223,0-12.721L229.832,10.564
		c3.502-3.498,10.401-6.727,15.33-7.175l36.862-3.352c4.93-0.448,8.596,3.218,8.148,8.148l-3.346,36.791
		c-0.448,4.93-3.68,11.825-7.182,15.324l-150.4,150.251c-3.502,3.498-9.232,3.498-12.734,0l-8.822-8.813
		c-3.502-3.498-3.502-9.223,0-12.722L233.608,63.213c1.854-1.848,1.856-4.852,0.003-6.702c-1.848-1.853-4.853-1.853-6.709-0.002
		L100.985,182.318z"/>
</g>
</svg>

<?xml version="1.0" encoding="UTF-8" standalone="no"?>
<!DOCTYPE svg PUBLIC "-//W3C//DTD SVG 1.1//EN" "http://www.w3.org/Graphics/SVG/1.1/DTD/svg11.dtd">
<svg width="100%" height="100%" viewBox="0 0 800 800" version="1.1" xmlns="http://www.w3.org/2000/svg" xmlns:xlink="http://www.w3.org/1999/xlink" xml:space="preserve" xmlns:serif="http://www.serif.com/" style="fill-rule:evenodd;clip-rule:evenodd;stroke-linejoin:round;stroke-miterlimit:2;">
    <g transform="matrix(-2.75647,0,0,2.75647,799.997,0)">
        <path d="M63.951,243.575C62.006,239.997 59.55,236.668 56.588,233.706C53.482,230.604 49.962,228.073 46.188,226.076C41.678,223.689 45.243,218.576 45.243,218.576C49.859,211.553 54.068,204.497 57.548,198.35L34.185,175.006L11.504,175.006C7.142,175.006 3.606,171.467 3.606,167.104C3.606,162.743 7.142,159.204 11.504,159.204L37.451,159.204C39.551,159.204 41.558,160.036 43.039,161.516L128.418,246.807C129.901,248.29 130.733,250.302 130.733,252.396L130.733,278.469C130.733,282.834 127.196,286.366 122.833,286.366C118.466,286.366 114.929,282.835 114.929,278.469L114.929,255.671L91.659,232.431C85.378,236.138 78.077,240.683 70.843,245.681C70.842,245.679 66.698,248.629 63.951,243.575Z" style="fill-rule:nonzero;"/>
        <path d="M26.61,237.102C19.504,237.102 12.826,239.866 7.798,244.886C2.779,249.901 0.016,256.572 0.016,263.664C0.016,270.761 2.78,277.426 7.798,282.44C12.825,287.456 19.504,290.223 26.61,290.225C33.712,290.225 40.391,287.455 45.414,282.44C50.437,277.425 53.204,270.758 53.204,263.664C53.204,256.571 50.436,249.9 45.414,244.886C40.392,239.866 33.712,237.102 26.61,237.102Z" style="fill-rule:nonzero;"/>
        <path d="M107.688,201.738C104.186,198.24 91.753,185.817 88.251,182.319L79.441,173.518C75.939,170.02 75.939,164.295 79.441,160.797L229.832,10.564C233.334,7.066 240.233,3.837 245.162,3.389L282.024,0.037C286.954,-0.411 290.62,3.255 290.172,8.185L286.826,44.976C286.378,49.906 283.146,56.801 279.644,60.3L129.244,210.551C125.742,214.049 120.012,214.049 116.51,210.551L107.688,201.738Z" style="fill-rule:nonzero;"/>
    </g>
</svg>
